usr/share/icons/biglinux-icons-material/16/actions/kr_mountman.svg

<svg xmlns="http://www.w3.org/2000/svg" viewBox="0 0 16 16">
  <defs id="defs3051">
    <style type="text/css" id="current-color-scheme">
      .ColorScheme-Text {
        color:#dedede;
      }
      .ColorScheme-Highlight {
        color:#3daee9;
      }
      .ColorScheme-PositiveText {
        color:#27ae60;
      }
      </style>
  </defs>
  <path 
        style="fill:currentColor;fill-opacity:1;stroke:none"
        d="m 2,2 0,12 12,0 0,-12 z m 1,1 10,0 0,8 -5,0 0,1 -2,0 0,-1 -3,0 0,-1 z m 1,1 0,6 8,0 0,-6 z m 1,1 1,0 0,2 4,0 0,-2 1,0 0,4 -6,0 z m -2,7 2,0 0,1 -2,0 z m 6,0 3,0 0,1 -3,0 z"
        class="ColorScheme-Text"
        />
  <path
       style="fill:currentColor;fill-opacity:1;stroke:none" 
     class="ColorScheme-PositiveText"
     d="m 6,5.9999852 c 2.216,0 4,1.784 4,4 0,2.2159998 -1.784,3.9999998 -4,3.9999998 -2.216,0 -4,-1.784 -4,-3.9999998 0,-2.216 1.784,-4 4,-4 z"
      />
  <path
     d="M 8,8 5,11 4,10 3,11 5,13 9,9 Z"
     style="fill:#ffffff;fill-rule:evenodd"
      />
</svg>

<svg xmlns="http://www.w3.org/2000/svg" viewBox="0 0 16 16"><defs id="defs3051"><style id="current-color-scheme" type="text/css">.ColorScheme-Highlight{color:#3daee9}</style></defs><path d="M2 2v12h12V2zm1 1h10v8H8v1H6v-1H3v-1zm1 1v6h8V4zm1 1h1v2h4V5h1v4H5zm-2 7h2v1H3zm6 0h3v1H9z" style="fill:currentColor;fill-opacity:1;stroke:none;color:#dedede"/><path d="M6 6c2.216 0 4 1.784 4 4s-1.784 4-4 4-4-1.784-4-4 1.784-4 4-4z" style="fill:currentColor;fill-opacity:1;stroke:none;color:#27ae60"/><path d="m8 8-3 3-1-1-1 1 2 2 4-4Z" style="fill:#fff;fill-rule:evenodd"/></svg>
